images/footer-btn.svg

<svg width="322" height="44" viewBox="0 0 322 44" fill="none" xmlns="http://www.w3.org/2000/svg">
<path d="M3.5 23.2342L27.181 3.5H318.5V20.7658L294.819 40.5H3.5V23.2342Z" stroke="#F6780F"/>
<path opacity="0.3" d="M26 0.75H25.9089L25.8392 0.808574L0.839202 21.8086L0.75 21.8835V22V43V43.25H1H296H296.091L296.161 43.1914L321.161 22.1914L321.25 22.1165V22V1V0.75H321H26Z" stroke="#F6780F" stroke-width="0.5"/>
</svg>

<svg width="322" height="44" fill="none" xmlns="http://www.w3.org/2000/svg"><path d="M3.5 23.234L27.181 3.5H318.5v17.266L294.819 40.5H3.5V23.234z" stroke="#F6780F"/><path opacity=".3" d="M26 .75h-.091l-.07.059-25 21-.089.075V43.25h295.341l.07-.059 25-21 .089-.075V.75H26z" stroke="#F6780F" stroke-width=".5"/></svg>
